apps/web/public/icons/downloads.svg

<?xml version="1.0" encoding="UTF-8"?>
<!-- Uploaded to: SVG Repo, www.svgrepo.com, Transformed by: SVG Repo Mixer Tools -->
<svg xmlns="http://www.w3.org/2000/svg" width="800px" height="800px" viewBox="0 0 24 24" id="meteor-icon-kit__solid-download" fill="none">
  <g id="SVGRepo_bgCarrier" stroke-width="0"></g>
  <g id="SVGRepo_tracerCarrier" stroke-linecap="round" stroke-linejoin="round"></g>
  <g id="SVGRepo_iconCarrier">
    <path fill-rule="evenodd" clip-rule="evenodd" d="M10.5 12.8787V1.5C10.5 0.671573 11.1716 0 12 0C12.8284 0 13.5 0.671573 13.5 1.5V12.8787L16.9393 9.43934C17.5251 8.85355 18.4749 8.85355 19.0607 9.43934C19.6464 10.0251 19.6464 10.9749 19.0607 11.5607L13.0607 17.5607C12.4749 18.1464 11.5251 18.1464 10.9393 17.5607L4.93934 11.5607C4.35355 10.9749 4.35355 10.0251 4.93934 9.43934C5.52513 8.85355 6.47487 8.85355 7.06066 9.43934L10.5 12.8787ZM21 21V17.5C21 16.6716 21.6716 16 22.5 16C23.3284 16 24 16.6716 24 17.5V22.5C24 23.3284 23.3284 24 22.5 24H1.5C0.671573 24 0 23.3284 0 22.5V17.5C0 16.6716 0.671573 16 1.5 16C2.32843 16 3 16.6716 3 17.5V21H21Z" fill="#FFAB0E"></path>
  </g>
</svg>

<svg xmlns="http://www.w3.org/2000/svg" width="800" height="800" fill="none" viewBox="0 0 24 24"><path fill="#ffab0e" fill-rule="evenodd" d="M10.5 12.879V1.5a1.5 1.5 0 0 1 3 0v11.379l3.44-3.44a1.5 1.5 0 0 1 2.12 2.122l-6 6a1.5 1.5 0 0 1-2.12 0l-6-6a1.5 1.5 0 0 1 2.12-2.122zM21 21v-3.5a1.5 1.5 0 0 1 3 0v5a1.5 1.5 0 0 1-1.5 1.5h-21A1.5 1.5 0 0 1 0 22.5v-5a1.5 1.5 0 0 1 3 0V21z" clip-rule="evenodd"/></svg>
